X:50
T: Ladies on the Road
C: BB
R: hornpipe
Q: 1/8=320
M: 4/4
L: 1/8
K: D
(3ABc|"Bm"dBFA "G"B3 D|"A7"GFEA "D"FD (3DED|"Em"EGBc "Bm"dfdB|\
"D"AdAF "A"E2 (3ABc|
"Bm"dBFA "G"B3 D|"A7"GFEA "Bm"FB (3BcB|"D"DF"Em"EG "D"FA"G"GB|\
"A"Acec "D"d2 :|
A2|"Bm"FB (3BAB "F#m"cA (3ABA|"G"dBgf "A"ecAG|"D"F2 Ad "G"Bdgb|\
"D"af (3dcB "A"A2 AG |
"Bm"FB (3BAB "F#m"cA (3ABA|"G"dBgf "A"ecAG|"D"FAdf "G"gB (3BAB|\
"A"Acec "D"d2 :|
